src/images/clients/home-work/logomark-dark.svg

<svg fill="none" height="36" viewBox="0 0 36 36" width="36" xmlns="http://www.w3.org/2000/svg"><g fill="#0a0a0a"><path d="m1.10557 30.7889c-.06943.1388-.10557.2919-.10557.4472v.2639c0 .5523.44772 1 1 1h26c.5523 0 1-.4477 1-1v-.2639c0-.1553-.0361-.3084-.1056-.4472l-1.618-3.2361c-.1694-.3388-.5157-.5528-.8944-.5528h-22.76397c-.37877 0-.72503.214-.89442.5528z"/><path clip-rule="evenodd" d="m4 12.9739c0-.3.13463-.584.36676-.774l10.63324-8.6999 3.3817 2.76687c.647.52932 1.6183.06903 1.6183-.76687h4v4.8898c0 .2999.1346.584.3668.7739l1.2664 1.0362c.2322.19.3668.474.3668.774v11.0261c0 .5523-.4477 1-1 1h-20c-.55228 0-1-.4477-1-1zm11 3.0261c-1.6569 0-3 1.3431-3 3v5h6v-5c0-1.6569-1.3431-3-3-3z" fill-rule="evenodd"/></g></svg>

<svg width="36" height="36" viewBox="0 0 36 36" fill="none" xmlns="http://www.w3.org/2000/svg">
  <path
    d="M1.10557 30.7889C1.03614 30.9277 1 31.0808 1 31.2361V31.5C1 32.0523 1.44772 32.5 2 32.5H28C28.5523 32.5 29 32.0523 29 31.5V31.2361C29 31.0808 28.9639 30.9277 28.8944 30.7889L27.2764 27.5528C27.107 27.214 26.7607 27 26.382 27H3.61803C3.23926 27 2.893 27.214 2.72361 27.5528L1.10557 30.7889Z"
    fill="#0A0A0A" />
  <path fill-rule="evenodd" clip-rule="evenodd"
    d="M4 12.9739C4 12.6739 4.13463 12.3899 4.36676 12.1999L15 3.5L18.3817 6.26687C19.0287 6.79619 20 6.3359 20 5.5H24V10.3898C24 10.6897 24.1346 10.9738 24.3668 11.1637L25.6332 12.1999C25.8654 12.3899 26 12.6739 26 12.9739V24C26 24.5523 25.5523 25 25 25H5C4.44772 25 4 24.5523 4 24V12.9739ZM15 16C13.3431 16 12 17.3431 12 19V24H18V19C18 17.3431 16.6569 16 15 16Z"
    fill="#0A0A0A" />
</svg>
